material/.icons/material/npm.svg

<svg xmlns="http://www.w3.org/2000/svg" viewBox="0 0 24 24"><path d="M4 10v4h2v-3h1v3h1v-4H4m5 0v5h2v-1h2v-4H9m3 1v2h-1v-2h1m2-1v4h2v-3h1v3h1v-3h1v3h1v-4h-6M3 9h18v6h-9v1H8v-1H3V9z"/></svg>

<?xml version="1.0" encoding="UTF-8"?><!DOCTYPE svg PUBLIC "-//W3C//DTD SVG 1.1//EN" "http://www.w3.org/Graphics/SVG/1.1/DTD/svg11.dtd"><svg xmlns="http://www.w3.org/2000/svg" xmlns:xlink="http://www.w3.org/1999/xlink" version="1.1" id="mdi-npm" width="24" height="24" viewBox="0 0 24 24"><path d="M4,10V14H6V11H7V14H8V10H4M9,10V15H11V14H13V10H9M12,11V13H11V11H12M14,10V14H16V11H17V14H18V11H19V14H20V10H14M3,9H21V15H12V16H8V15H3V9Z" /></svg>
